shader sdCircle (
    float radius = 1.0,
    vector multivector = vector(1,1,1),
    output color floatToColor = 0
) 
{
    
    vector pos;
    vector sdCircle;
    
    pos = P * multivector;
    sdCircle = length(pos) - radius;
    float r = sdCircle.x;
    float g = sdCircle.y;
    float b = sdCircle.z;
    
    floatToColor = color(r,g,b);

}





